assets/images/icon-code.svg

<svg xmlns="http://www.w3.org/2000/svg" width="1792" height="1792" id="code"><path d="m553 1399-50 50q-10 10-23 10t-23-10L-9 983q-10-10-10-23t10-23l466-466q10-10 23-10t23 10l50 50q10 10 10 23t-10 23L160 960l393 393q10 10 10 23t-10 23zm591-1067L771 1623q-4 13-15.5 19.5T732 1645l-62-17q-13-4-19.5-15.5T648 1588l373-1291q4-13 15.5-19.5t23.5-2.5l62 17q13 4 19.5 15.5t2.5 24.5zm657 651-466 466q-10 10-23 10t-23-10l-50-50q-10-10-10-23t10-23l393-393-393-393q-10-10-10-23t10-23l50-50q10-10 23-10t23 10l466 466q10 10 10 23t-10 23z"></path></svg>

<?xml version="1.0" encoding="UTF-8" standalone="no" ?>
<!DOCTYPE svg PUBLIC "-//W3C//DTD SVG 1.1//EN" "http://www.w3.org/Graphics/SVG/1.1/DTD/svg11.dtd">
<svg xmlns="http://www.w3.org/2000/svg" xmlns:xlink="http://www.w3.org/1999/xlink" version="1.1" width="1080" height="1080" viewBox="0 0 1080 1080" xml:space="preserve">
<desc>Created with Fabric.js 5.2.4</desc>
<defs>
</defs>
<g transform="matrix(1 0 0 1 540 540)" id="8dfc06d7-a822-4599-8ae6-f65448da6fd4"  >
<rect style="stroke: none; stroke-width: 1; stroke-dasharray: none; stroke-linecap: butt; stroke-dashoffset: 0; stroke-linejoin: miter; stroke-miterlimit: 4; fill: rgb(255,255,255); fill-rule: nonzero; opacity: 1; visibility: hidden;" vector-effect="non-scaling-stroke"  x="-540" y="-540" rx="0" ry="0" width="1080" height="1080" />
</g>
<g transform="matrix(1 0 0 1 540 540)" id="8ae9d6eb-6369-447c-8157-21d5d6c3002d"  >
</g>
<g transform="matrix(0.34 0 0 0.34 540 540)" id="e5bce83c-cb5d-496e-8cb8-31d2b66a60ae"  >
<path style="stroke: rgb(0,255,255); stroke-width: 0; stroke-dasharray: none; stroke-linecap: butt; stroke-dashoffset: 0; stroke-linejoin: miter; stroke-miterlimit: 4; fill: rgb(0,255,255); fill-rule: nonzero; opacity: 1;" vector-effect="non-scaling-stroke"  transform=" translate(-896, -960)" d="M 553 1399 L 503 1449 Q 493 1459 480 1459 Q 467 1459 457 1449 L -9 983 Q -19 973 -19 960 Q -19 947 -9 937 L 457 471 Q 467 461 480 461 Q 493 461 503 471 L 553 521 Q 563 531 563 544 Q 563 557 553 567 L 160 960 L 553 1353 Q 563 1363 563 1376 Q 563 1389 553 1399 z M 1144 332 L 771 1623 Q 767 1636 755.5 1642.5 Q 744 1649 732 1645 L 670 1628 Q 657 1624 650.5 1612.5 Q 644 1601 648 1588 L 1021 297 Q 1025 284 1036.5 277.5 Q 1048 271 1060 275 L 1122 292 Q 1135 296 1141.5 307.5 Q 1148 319 1144 332 z M 1801 983 L 1335 1449 Q 1325 1459 1312 1459 Q 1299 1459 1289 1449 L 1239 1399 Q 1229 1389 1229 1376 Q 1229 1363 1239 1353 L 1632 960 L 1239 567 Q 1229 557 1229 544 Q 1229 531 1239 521 L 1289 471 Q 1299 461 1312 461 Q 1325 461 1335 471 L 1801 937 Q 1811 947 1811 960 Q 1811 973 1801 983 z" stroke-linecap="round" />
</g>
</svg>
